X:746
T:Aria. TLY.042
M:3/8
L:1/8
Q:40
S:Wm.Tildesley,Swinton,Lancs.1860s.
R:Air
O:England.
A:Lancashire.
N:25 bar marked cresc. 32nd. bar first crotchet marked pause, last quaver
N:A marked p. 45th. bar marked fort
H:1860.
Z:Taz Tarry.
K:D
A|ddd|d2e| f-g.e|d2e| fff| f2g| a-b.g| f2 d'/-c'/|!
 bbb| b2 b/-a/| ggg|g2 a/-g/| f-e.d| a-g.f| eee|e2:|!
A|aaf| g2e| ffd| e2A| d2d| e2e|f>af| e2a|!
"Cres." b>c'b| d'-c'.b| a>ba| b-a.g|f>ga| a-g.f| eee| e2A|!
A>BA|AB=c| =c3-|B2 B|B>cB|Bcd|d3-|c2 A|!
BdB| cec| dfd| ege| f>ga| g-f.e|d'3| b3|!
 a>gf| g-f.e| d'3| bc'd'| a>gf| g-f.e| ddd|!
 d/c/d/e/f/g/| afd| A-B.c|dd'd'|d'3:|
